;FLAVOR:Marlin
;TIME:3340
;Filament used: 4.74086m
;Layer height: 0.32
;MINX:87.9
;MINY:102.399
;MINZ:0.32
;MAXX:146.864
;MAXY:132.602
;MAXZ:48
M140 S40
M105
M190 S40
M104 S200
M105
M109 S200
M82 ;absolute extrusion mode
G92 E0 ; Reset Extruder
G28 ; Home all axes
G1 Z2.0 F3000 ; Move Z Axis up little to prevent scratching of Heat Bed
G1 X0.1 Y20 Z0.3 F5000.0 ; Move to start position
G1 X0.1 Y200.0 Z0.3 F1500.0 E15 ; Draw the first line
G1 X0.4 Y200.0 Z0.3 F5000.0 ; Move to side a little
G1 X0.4 Y20 Z0.3 F1500.0 E30 ; Draw the second line
G92 E0 ; Reset Extruder
G1 Z2.0 F3000 ; Move Z Axis up little to prevent scratching of Heat Bed
G1 X5 Y20 Z0.3 F5000.0 ; Move over to prevent blob squish
G92 E0
G92 E0
G1 F2700 E-5
;LAYER_COUNT:150
;LAYER:0
M107
G0 F6000 X110.028 Y118.989 Z0.32
;TYPE:WALL-OUTER
G1 F2700 E0
G1 F1200 X110.66 Y118.97 E0.0673
G1 X111.07 Y118.914 E0.11134
G1 X111.332 Y118.765 E0.14342
G1 X111.47 Y118.584 E0.16764
G1 X111.612 Y118.312 E0.2003
G1 X111.693 Y117.88 E0.24708
G1 X111.724 Y117.53 E0.28448
G1 X111.702 Y117.049 E0.33572
G1 X111.698 Y116.966 E0.34457
G1 X111.611 Y116.619 E0.38264
G1 X111.467 Y116.28 E0.42184
G1 X111.309 Y116.121 E0.4457
G1 X111.042 Y116.007 E0.4766
G1 X110.696 Y115.965 E0.5137
G1 X110.024 Y115.941 E0.58527
G1 X110.028 Y118.989 E0.90967
G0 F6000 X110.5 Y118.503
G0 X110.864 Y117.767
;TYPE:WALL-INNER
G1 F1086 X110.875 Y117.514 E0.93945
G1 F1083.5 X110.865 Y117.087 E0.9898
G1 F2700 E-4.0102
G0 F6000 X111.317 Y117.373
G0 X113.916 Y117.307
G0 X115.716 Y118.225
G1 F2700 E0.9898
G1 F1212.1 X115.141 Y117.24 E1.10998
G1 F1210.6 X114.974 Y116.489 E1.19114
G1 F1226.1 X115.017 Y116.062 E1.23585
G1 F1215.2 X115.102 Y115.719 E1.27299
G1 F1201.5 X115.338 Y115.384 E1.31655
G1 F1200 X115.547 Y115.166 E1.34869
G1 X115.868 Y114.961 E1.38923
G1 X116.235 Y114.827 E1.43081
G1 X116.609 Y114.785 E1.47087
G1 X116.941 Y114.797 E1.50623
G1 X117.415 Y114.984 E1.56046
G1 X117.684 Y115.176 E1.59564
G1 X117.996 Y114.96 E1.63602
G1 X118.578 Y114.776 E1.70099
G1 X118.982 Y114.792 E1.74402
G1 X119.408 Y114.942 E1.79209
G1 X119.646 Y115.092 E1.82203
G1 X119.851 Y114.955 E1.84828
G1 X120.2 Y114.83 E1.88773
G1 X120.769 Y114.792 E1.94843
G1 X121.09 Y114.844 E1.98304
G1 X121.528 Y115.015 E2.03308
G1 X121.906 Y115.324 E2.08504
G1 X122.071 Y115.512 E2.11167
G1 X122.343 Y115.197 E2.15596
G1 X122.596 Y115 E2.19009
G1 X122.926 Y114.854 E2.2285
G1 X123.205 Y114.785 E2.25909
G1 X123.626 Y114.806 E2.30395
G1 X123.876 Y114.87 E2.33142
G1 X124.259 Y115.093 E2.37859
G1 X124.635 Y114.893 E2.42391
G1 X125.029 Y114.807 E2.46684
G1 X125.284 Y114.78 E2.49413
G1 X127.474 Y114.782 E2.72721
G1 X127.186 Y114.49 E2.77087
G1 X126.839 Y114.16 E2.82183
G1 X126.497 Y113.859 E2.87032
G1 X126.191 Y113.605 E2.91265
G1 X125.583 Y113.143 E2.99392
G1 X125.041 Y112.771 E3.06389
G1 X124.46 Y112.416 E3.13635
G1 X124.014 Y112.168 E3.19067
G1 X123.553 Y111.935 E3.24565
G1 X123.067 Y111.711 E3.3026
G1 X122.591 Y111.512 E3.35751
G1 X122.112 Y111.334 E3.4119
G1 X121.452 Y111.122 E3.48568
G1 X120.959 Y110.988 E3.54005
G1 X120.613 Y110.903 E3.57798
G1 X120.074 Y110.791 E3.63657
G1 X119.59 Y110.71 E3.6888
G1 X118.799 Y110.614 E3.7736
G1 X118.248 Y110.575 E3.83239
G1 X117.834 Y110.56 E3.87649
G1 X117.472 Y110.558 E3.91502
G1 X117.03 Y110.568 E3.96207
G1 X96.423 Y111.826 E6.15941
G1 F1121.5 X95.911 Y111.913 E6.21855
G1 F978.6 X95.479 Y112.008 E6.27628
G1 F924.9 X94.796 Y112.037 E6.37068
G1 F923.1 X94.018 Y112.099 E6.47867
G1 F896.4 X93.184 Y112.195 E6.59829
G1 F870.4 X92.995 Y112.404 E6.63964
G1 F857.1 X92.959 Y112.681 E6.68126
G1 X92.96 Y113.634 E6.82326
G1 X93.177 Y113.501 E6.86119
G1 X93.644 Y113.268 E6.93895
G1 F883.2 X94.171 Y113.138 E7.01745
G1 F923.1 X94.857 Y113.06 E7.11298
G1 F924.9 X95.5 Y113.057 E7.20177
G1 F972.6 X95.99 Y113.24 E7.27046
G1 F1113.7 X96.48 Y113.424 E7.33048
G1 F1200 X96.862 Y113.607 E7.37556
G1 X97.171 Y113.835 E7.41644
G1 X97.347 Y113.654 E7.44331
G1 X97.544 Y113.527 E7.46825
G1 X97.969 Y113.344 E7.5175
G1 X98.297 Y113.294 E7.55281
G1 X99.019 Y113.355 E7.62993
G1 X99.625 Y113.345 E7.69444
G1 X101.848 Y113.35 E7.93104
G1 X102.306 Y113.338 E7.9798
G1 X102.883 Y113.463 E8.04264
G1 X103.304 Y113.744 E8.09651
G1 X103.576 Y113.564 E8.13122
G1 X103.998 Y113.37 E8.18066
G1 X104.524 Y113.231 E8.23856
G1 X105.045 Y113.166 E8.29444
G1 X105.648 Y113.18 E8.35864
G1 X106.146 Y113.253 E8.41221
G1 X106.413 Y113.324 E8.44161
G1 X106.854 Y113.5 E8.49215
G1 X107.31 Y113.797 E8.55007
G1 X107.623 Y114.136 E8.59918
G1 X107.808 Y113.888 E8.63211
G1 X108.049 Y113.686 E8.66558
G1 X108.39 Y113.496 E8.70713
G1 X108.754 Y113.356 E8.74863
G1 X109.374 Y113.334 E8.81466
G1 X109.844 Y113.351 E8.86472
G1 X110.529 Y113.351 E8.93763
G1 X110.887 Y113.371 E8.97579
G1 X111.252 Y113.411 E9.01487
G1 X111.802 Y113.515 E9.07444
G1 X112.265 Y113.682 E9.12683
G1 X112.499 Y113.796 E9.15453
G1 X112.913 Y114.059 E9.20673
G1 X113.247 Y114.362 E9.25473
G1 X113.643 Y114.868 E9.32312
G1 F1209.1 X114.029 Y115.585 E9.40914
G1 F1227.6 X114.194 Y116.253 E9.48072
G1 F1251.6 X114.244 Y116.651 E9.52165
G1 F1253.3 X114.292 Y116.96 E9.55352
G1 F1206 X114.324 Y117.299 E9.58958
G1 F1172.2 X114.324 Y117.67 E9.63001
G1 F1175 X114.735 Y117.696 E9.67477
G1 F1177.9 X115.198 Y117.859 E9.72799
G1 F1191.1 X115.461 Y117.995 E9.75974
G1 F1213.7 X115.716 Y118.225 E9.79588
G1 F2700 E4.79588
G0 F6000 X114.763 Y117.215
G0 X115.804 Y118.81
G1 F2700 E9.79588
G0 F6000 X115.698 Y119.917
;TYPE:WALL-OUTER
G1 F1113.7 X115.675 Y120.182 E9.82638
G0 F6000 X115.648 Y121.111
G0 X117.338 Y121.966
G0 X117.6 Y121.821
G0 X118.279 Y122.147
G0 X118.766 Y124.005
G0 X117.282 Y124.44
;TYPE:WALL-INNER
G1 F1200 X117.952 Y124.437 E9.89769
G1 X118.548 Y124.407 E9.96121
G1 X118.804 Y124.386 E9.98854
G1 X119.435 Y124.311 E10.05618
G1 F1195.5 X119.77 Y124.242 E10.09272
G1 X119.47 Y124.103 E10.12804
G1 F1200 X119.168 Y123.872 E10.16851
G1 X118.924 Y123.598 E10.20756
G1 X118.777 Y123.325 E10.24056
G1 X118.619 Y122.908 E10.28802
G1 X118.592 Y122.579 E10.32315
G1 X118.648 Y122.102 E10.37427
G1 X118.754 Y121.793 E10.40904
G1 X118.484 Y121.774 E10.43785
G1 X118.127 Y121.69 E10.47688
G1 X117.902 Y121.586 E10.50326
G1 X117.598 Y121.352 E10.54409
G1 X117.463 Y121.472 E10.56332
G1 X117.195 Y121.635 E10.5967
G1 X116.903 Y121.739 E10.62969
G1 X116.518 Y121.778 E10.67088
G1 X116.12 Y121.719 E10.7137
G1 X115.849 Y121.627 E10.74416
G1 X115.694 Y121.537 E10.76324
G1 X115.554 Y121.65 E10.78239
G1 X115.141 Y121.888 E10.83312
G1 X114.69 Y122.032 E10.88351
G1 X114.071 Y122.074 E10.94954
G1 X113.67 Y121.986 E10.99324
G1 X113.344 Y121.858 E11.03051
G1 X113.067 Y121.704 E11.06424
G1 X112.732 Y121.455 E11.10867
G1 X112.465 Y121.118 E11.15443
G1 X112.143 Y121.3 E11.1938
G1 X111.554 Y121.462 E11.25881
G1 X111.096 Y121.539 E11.30824
G1 X110.698 Y121.573 E11.35076
G1 X110.117 Y121.584 E11.41261
G1 X109.639 Y121.572 E11.4635
G1 X109.24 Y121.611 E11.50617
G1 X108.853 Y121.602 E11.54737
G1 X108.313 Y121.435 E11.60752
G1 X107.968 Y121.226 E11.65046
G1 X107.757 Y120.964 E11.68626
G1 X107.636 Y120.735 E11.71383
G1 X107.333 Y121.05 E11.76035
G1 X106.804 Y121.424 E11.8293
G1 X106.202 Y121.644 E11.89751
G1 X105.488 Y121.767 E11.97463
G1 X104.649 Y121.731 E12.06401
G1 X104.374 Y121.682 E12.09374
G1 X103.916 Y121.543 E12.14468
G1 X103.679 Y121.442 E12.1721
G1 X103.416 Y121.295 E12.20416
G1 X103.208 Y121.148 E12.23127
G1 X102.886 Y120.819 E12.28027
G1 F1222.9 X102.727 Y120.576 E12.3106
G1 F1271.5 X102.58 Y120.029 E12.36749
G1 F1350.2 X102.564 Y119.6 E12.4081
G1 F1371.4 X102.606 Y119.142 E12.45093
G1 F1153.8 X102.825 Y118.538 E12.52205
G1 F951.4 X102.961 Y118.303 E12.55849
G1 F895.5 X103.27 Y118.095 E12.61162
G1 X103.116 Y117.754 E12.66498
G1 F910.8 X103.081 Y117.373 E12.71863
G1 F927.5 X103.097 Y116.94 E12.77829
G1 F928.4 X103.147 Y116.677 E12.81512
G1 X103.039 Y116.59 E12.8342
G1 X102.792 Y116.691 E12.87091
G1 X102.455 Y116.786 E12.91907
G1 X102.049 Y116.834 E12.97531
G1 F922.2 X102.052 Y117.69 E13.09387
G1 F905.7 X102.066 Y117.904 E13.12411
G1 F951.4 X102.002 Y118.219 E13.16726
G1 F1153.8 X101.893 Y119.016 E13.2563
G1 F1371.4 X101.884 Y119.611 E13.31172
G1 F1350.2 X101.894 Y120.071 E13.35524
G1 F1261.5 X101.823 Y120.467 E13.39597
G1 F1213.7 X101.74 Y120.703 E13.4223
G1 F1200 X101.404 Y121.159 E13.48258
G1 X101.05 Y121.416 E13.52914
G1 X100.554 Y121.574 E13.58455
G1 X100.115 Y121.612 E13.63145
G1 X99.735 Y121.533 E13.67276
G1 X99.481 Y121.441 E13.70151
G1 X98.984 Y121.113 E13.76489
G1 X98.681 Y120.648 E13.82396
G1 X98.597 Y120.426 E13.84922
G1 F990.7 X98.382 Y120.133 E13.89607
G1 F774.8 X98.291 Y119.897 E13.93776
G1 X98.118 Y120.081 E13.97939
G1 F990.7 X97.805 Y120.371 E14.0344
G1 F1200 X97.624 Y120.657 E14.07043
G1 X97.22 Y121.072 E14.13207
G1 X96.779 Y121.37 E14.18872
G1 F1104.7 X96.029 Y121.728 E14.2848
G1 F937.5 X95.752 Y121.869 E14.32714
G1 F878.3 X95.227 Y121.891 E14.40355
G1 F897.2 X94.708 Y121.875 E14.47747
G1 F893.9 X94.159 Y121.805 E14.55655
G1 F859.4 X93.627 Y121.67 E14.63811
G1 F834.8 X93.311 Y121.529 E14.69105
G1 X92.975 Y121.323 E14.75135
G1 X92.973 Y122.426 E14.92011
G1 X93.049 Y122.668 E14.95892
G1 X93.195 Y122.773 E14.98643
G1 X93.514 Y122.82 E15.03576
G1 F860.2 X94.147 Y122.893 E15.13037
G1 F894.7 X94.644 Y122.936 E15.20158
G1 F901.4 X95.034 Y122.956 E15.25691
G1 F881.5 X95.759 Y122.978 E15.362
G1 F937.5 X96.195 Y123.092 E15.4234
G1 F1104.7 X96.666 Y123.189 E15.47899
G1 F1200 X116.707 Y124.416 E17.616
G1 X117.282 Y124.44 E17.67725
G0 F6000 X120.41 Y124.004
G0 X121.112 Y123.819
G0 X123.303 Y122.704
G0 X122.684 Y123.281
G1 F863.3 X123.015 Y123.142 E17.73036
G1 X123.43 Y122.952 E17.79788
G1 X124.075 Y122.621 E17.90514
G1 X124.506 Y122.376 E17.97848
G1 X124.768 Y122.217 E18.02382
G1 X125.147 Y121.972 E18.09059
G1 X124.728 Y121.896 E18.15359
G1 X124.437 Y121.794 E18.1992
G1 X124.147 Y121.65 E18.24711
G1 X123.815 Y121.343 E18.314
G1 X123.637 Y121.107 E18.35773
G1 X123.108 Y122.466 E18.57348
G1 X122.924 Y122.858 E18.63754
G1 X122.684 Y123.281 E18.70949
G1 F2700 E13.70949
G0 F6000 X123.303 Y122.704
G0 X121.277 Y123.775
G0 X120.41 Y124.004
G0 X119.6 Y123.796
G0 X119.175 Y123.356
G0 X117.511 Y120.94
G0 X117.166 Y121.257
G0 X116.687 Y121.442
G0 X113.979 Y121.717
G0 X106.65 Y121.096
G0 X106.107 Y121.293
G0 X105.475 Y121.405
G0 X104.583 Y121.367
G0 X103.934 Y121.17
G0 X103.481 Y120.916
G0 X103.088 Y120.502
G0 X102.868 Y119.89
G0 X102.865 Y119.466
G0 X103.442 Y117.325
G0 X103.729 Y116.486
G1 F2700 E18.70949
G0 F6000 X105.171 Y115.922
;TYPE:WALL-OUTER
G1 F758.3 X105.048 Y115.981 E18.73247
G1 F803.3 X104.722 Y116.108 E18.78809
G1 F869.6 X104.5 Y116.182 E18.82246
G0 F6000 X103.729 Y116.486
G0 X101.462 Y120.463
G0 X101.113 Y120.958
G0 X100.665 Y121.202
G0 X100.028 Y121.256
G0 X99.333 Y121
G0 X98.977 Y120.434
G0 X98.287 Y118.411
G0 X98.322 Y119.247
;TYPE:WALL-INNER
G1 F790.8 X98.448 Y118.853 E18.88928
G1 F952.4 X98.588 Y118.462 E18.94497
G1 F1104.7 X98.591 Y117.204 E19.09041
G1 F1200 X98.584 Y116.744 E19.13938
G1 X98.189 Y116.742 E19.18142
G1 X97.796 Y116.654 E19.22428
G1 X97.571 Y116.554 E19.25049
G1 X97.394 Y116.723 E19.27653
G1 X97.153 Y116.901 E19.30842
G1 F1206 X96.836 Y117.02 E19.34428
G1 F1219.8 X96.374 Y117.076 E19.39301
G1 F1142.9 X95.961 Y117.065 E19.43918
G1 F1015.9 X95.453 Y116.981 E19.50391
G1 F967.7 X94.99 Y116.69 E19.57608
G1 X94.904 Y116.889 E19.60469
G1 X94.872 Y117.145 E19.63874
G1 X94.855 Y117.569 E19.69475
G1 X94.891 Y117.966 E19.74735
G1 X94.982 Y118.237 E19.78508
G1 X95.045 Y118.252 E19.79363
G1 X95.22 Y118.096 E19.82457
G1 F1015.9 X95.59 Y117.891 E19.87775
G1 F1128.1 X96.017 Y117.857 E19.92625
G1 F1200 X96.574 Y117.854 E19.98553
G1 F1206 X97.186 Y118.046 E20.05346
G1 F1203 X97.503 Y118.291 E20.09599
G1 F1151.1 X97.905 Y118.741 E20.16294
G1 F986.6 X98.108 Y118.918 E20.19781
G1 F790.8 X98.322 Y119.247 E20.2612
G1 F2700 E15.2612
G0 F6000 X98.287 Y118.411
G0 X97.413 Y120.358
G0 X97.007 Y120.779
G0 X96.471 Y121.141
G0 X95.809 Y121.347
G0 X94.704 Y121.382
G0 X93.684 Y121.126
G0 X93.158 Y120.807
G0 X92.78 Y120.493
G0 X92.429 Y120.053
G1 F2700 E20.2612
G0 F6000 X92.12 Y118.474
;TYPE:WALL-OUTER
G1 F945.8 X92.092 Y118.034 E20.32073
G1 F983.6 X92.081 Y117.67 E20.36802
G1 F993.8 X92.081 Y117.277 E20.41853
G1 F974.6 X92.101 Y116.733 E20.48986
G1 F934.8 X92.124 Y116.425 E20.53206
G1 F2700 E15.53206
G0 F6000 X92.424 Y114.868
G0 X92.968 Y114.269
G0 X93.816 Y113.764
G0 X94.086 Y113.676
G0 X94.893 Y113.551
G0 X97.742 Y116.249
G0 X117.267 Y125.24
G1 F2700 E20.53206
G1 F1200 X117.953 Y125.238 E20.60508
G1 X118.573 Y125.207 E20.67115
G1 X118.895 Y125.181 E20.70553
G1 X119.557 Y125.103 E20.77647
G1 F1094.6 X119.921 Y125.04 E20.81958
G1 F937.5 X120.605 Y124.766 E20.91996
G1 F876.7 X121.106 Y124.65 E20.99487
G1 F874.3 X121.565 Y124.523 E21.06444
G1 F868.8 X121.671 Y124.484 E21.08105
G1 F971.7 X122.301 Y124.411 E21.16441
G1 F1152.5 X122.618 Y124.33 E21.20067
G1 F1200 X122.916 Y124.219 E21.23452
G1 X123.412 Y124.011 E21.29176
G1 X123.841 Y123.815 E21.34196
G1 X124.214 Y123.63 E21.38627
G1 X124.585 Y123.431 E21.43108
G1 X124.992 Y123.2 E21.48089
G1 X125.287 Y123.02 E21.51767
G1 X125.66 Y122.779 E21.56494
G1 X125.994 Y122.548 E21.60816
G1 X126.324 Y122.307 E21.65165
G1 X126.765 Y121.962 E21.71124
G1 X127.22 Y121.572 E21.77503
G1 F1258.2 X128.15 Y120.721 E21.90299
G1 F1302.6 X127.95 Y120.866 E21.92721
G1 F1266.5 X127.77 Y120.938 E21.94676
G1 F1224.5 X127.396 Y120.982 E21.98604
G1 F1200 X126.169 Y120.982 E22.11663
G1 X125.723 Y120.971 E22.16412
G1 X125.105 Y121.014 E22.23005
G1 F1185.2 X124.646 Y120.855 E22.2824
G1 F1156.6 X124.41 Y120.545 E22.32542
G1 F1115 X124.26 Y120.109 E22.37824
G1 F1030 X124.227 Y119.798 E22.41701
G1 F978.6 X124.329 Y119.439 E22.46572
G1 F1027.8 X124.595 Y119.098 E22.51946
G1 F1137.4 X124.838 Y118.833 E22.55983
G1 F1200 X125.888 Y117.375 E22.75107
G1 X125.467 Y117.382 E22.79588
G1 X125.014 Y117.325 E22.84447
G1 X124.674 Y117.181 E22.88377
G1 F1176.5 X124.385 Y116.889 E22.92837
G1 F1099.7 X124.287 Y116.527 E22.97193
G1 F1079.9 X124.214 Y116.845 E23.01052
G1 F1147 X124.065 Y117.133 E23.04663
G1 F1194 X123.948 Y117.37 E23.0749
G1 F1200 X123.833 Y117.671 E23.10919
G1 X123.656 Y118.213 E23.16988
G1 F1079.9 X123.472 Y118.993 E23.26466
G1 F986.6 X123.399 Y119.18 E23.29065
G1 F984.6 X123.289 Y119.512 E23.33602
G1 F1070.2 X122.964 Y120.17 E23.4236
G1 F1191.1 X122.716 Y120.842 E23.50041
G1 F1200 X122.236 Y122.071 E23.64083
G1 X122.106 Y122.358 E23.67437
G1 X121.841 Y122.827 E23.7317
G1 F1137.4 X121.542 Y123.158 E23.78179
G1 F1030 X121.494 Y123.246 E23.79422
G1 F958.1 X121.209 Y123.491 E23.84432
G1 F972.6 X120.465 Y123.68 E23.94512
G1 F1099.7 X119.798 Y123.374 E24.03035
G1 F1200 X119.549 Y123.105 E24.06936
G1 X119.383 Y122.667 E24.11921
G1 X119.438 Y122.254 E24.16356
G1 F1134.8 X119.508 Y122.039 E24.18901
G1 F988.7 X119.691 Y121.802 E24.22769
G1 F883.2 X120.183 Y121.579 E24.30581
G1 F854.1 X120.308 Y121.545 E24.32518
G1 X120.468 Y121.407 E24.35677
G1 F846.6 X120.583 Y121.218 E24.39015
G1 F835.5 X120.957 Y120.21 E24.5545
G1 F828.3 X120.872 Y119.965 E24.59449
G1 F856.4 X120.705 Y119.466 E24.67297
G1 F888.9 X120.543 Y119.027 E24.7402
G1 F847.3 X120.097 Y117.989 E24.9105
G1 F814.2 X119.784 Y117.204 E25.04305
G1 F834.1 X119.658 Y116.601 E25.13738
G1 F852.6 X119.578 Y116.978 E25.19512
G1 F832.6 X119.203 Y117.629 E25.31036
G1 F810.8 X118.944 Y118.04 E25.38689
G1 X118.877 Y118.242 E25.42041
G1 X119.039 Y118.507 E25.46933
G1 F829 X119.327 Y119.062 E25.56566
G1 F864.9 X119.572 Y119.491 E25.63862
G1 F873.5 X119.745 Y119.987 E25.71543
G1 F854.9 X119.742 Y120.318 E25.76488
G1 F857.9 X119.651 Y120.582 E25.80645
G1 F875.1 X119.507 Y120.791 E25.84349
G1 F954.3 X119.139 Y121.003 E25.90034
G1 F1079.9 X118.818 Y121.022 E25.93837
G1 F1136.1 X118.347 Y120.928 E25.99236
G1 F1177.9 X118.019 Y120.66 E26.03829
G1 F1200 X117.625 Y119.973 E26.12258
G1 X117.394 Y120.345 E26.16918
G1 X117.179 Y120.647 E26.20864
G1 X116.965 Y120.846 E26.23974
G1 X116.642 Y120.99 E26.27738
G1 X116.231 Y120.929 E26.3216
G1 F1198.5 X115.919 Y120.721 E26.36156
G1 F1173.6 X115.72 Y120.386 E26.40397
G1 F1151.1 X115.676 Y120.195 E26.42572
G1 F1169.3 X115.461 Y120.619 E26.47764
