;FLAVOR:Marlin
;TIME:4733
;Filament used: 8.85708m
;Layer height: 0.32
;MINX:86.265
;MINY:93.382
;MINZ:0.32
;MAXX:148.735
;MAXY:141.618
;MAXZ:62.4
M140 S40
M105
M190 S40
M104 S200
M105
M109 S200
M82 ;absolute extrusion mode
G92 E0 ; Reset Extruder
G28 ; Home all axes
G1 Z2.0 F3000 ; Move Z Axis up little to prevent scratching of Heat Bed
G1 X0.1 Y20 Z0.3 F5000.0 ; Move to start position
G1 X0.1 Y200.0 Z0.3 F1500.0 E15 ; Draw the first line
G1 X0.4 Y200.0 Z0.3 F5000.0 ; Move to side a little
G1 X0.4 Y20 Z0.3 F1500.0 E30 ; Draw the second line
G92 E0 ; Reset Extruder
G1 Z2.0 F3000 ; Move Z Axis up little to prevent scratching of Heat Bed
G1 X5 Y20 Z0.3 F5000.0 ; Move over to prevent blob squish
G92 E0
G92 E0
G1 F2700 E-5
;LAYER_COUNT:196
;LAYER:0
M107
G0 F6000 X110.207 Y112.169 Z0.32
;TYPE:WALL-OUTER
G1 F2700 E0
G1 F2388.1 X110.133 Y112.212 E0.00458
G1 X110.158 Y112.255 E0.00724
G1 X110.222 Y112.255 E0.01066
G1 X110.094 Y112.755 E0.03826
G1 F2274.9 X110.07 Y113.191 E0.06278
G0 F6000 X108.213 Y115.187
G0 X109.282 Y113.979
G1 F950.5 X109.249 Y114.158 E0.08724
G1 F871.9 X109.097 Y114.491 E0.14086
G1 F812.2 X109.016 Y114.527 E0.15479
G1 F858.7 X108.802 Y114.737 E0.19939
G0 F6000 X108.141 Y115.223
G0 X107.318 Y115.505
G0 X105.829 Y116.732
G0 X105.169 Y120.869
;TYPE:WALL-INNER
G1 F1200 X105.508 Y121.145 E0.24592
G1 X105.481 Y120.592 E0.30484
G1 X105.399 Y120.391 E0.32795
G1 X105.346 Y120.051 E0.36457
G1 X105.37 Y119.794 E0.39204
G1 X105.407 Y119.683 E0.4045
G1 X105.351 Y119.324 E0.44317
G1 X105.407 Y118.357 E0.54626
G1 X105.705 Y117.405 E0.65243
G1 X105.635 Y117.119 E0.68377
G1 X105.637 Y116.864 E0.71091
G1 X105.726 Y116.524 E0.74832
G1 X105.844 Y116.312 E0.77414
G1 X106.076 Y116.062 E0.81044
G1 X106.369 Y115.826 E0.85049
G1 X106.014 Y115.879 E0.88869
G1 X105.677 Y115.821 E0.92508
G1 X105.345 Y115.655 E0.96459
G1 X105.016 Y115.608 E0.99996
G1 X104.689 Y115.458 E1.03825
G1 X104.416 Y115.439 E1.06738
G1 X104.274 Y115.462 E1.08269
G1 X104.019 Y115.456 E1.10984
G1 X103.712 Y115.373 E1.14368
G1 X103.419 Y115.207 E1.17953
G1 X102.79 Y114.578 E1.2742
G1 X102.418 Y114.378 E1.31915
G1 X102.113 Y114.042 E1.36745
G1 X101.979 Y113.729 E1.40369
G1 X101.85 Y113.253 E1.45618
G1 F1134.8 X101.716 Y113.028 E1.48565
G1 F995.9 X101.592 Y112.672 E1.534
G1 F927.5 X101.531 Y112.023 E1.62376
G1 X101.536 Y111.724 E1.66494
G1 F948.6 X101.594 Y111.472 E1.69975
G1 F1024.5 X101.731 Y110.97 E1.76462
G1 F1054.9 X101.591 Y111.246 E1.80209
G1 F974.6 X101.319 Y111.602 E1.8608
G1 F927.5 X101.25 Y111.651 E1.87245
G1 X101.097 Y111.892 E1.91176
G1 X100.579 Y112.491 E2.0208
G1 X100.562 Y112.669 E2.04542
G1 F995.9 X100.421 Y112.97 E2.08805
G1 F1134.8 X100.164 Y113.319 E2.13684
G1 F1200 X99.908 Y113.543 E2.17304
G1 X99.713 Y113.647 E2.19656
G1 X99.44 Y113.611 E2.22587
G1 X98.794 Y114.346 E2.33002
G1 X98.564 Y114.513 E2.36027
G1 X98.412 Y114.577 E2.37782
G1 X98.366 Y114.735 E2.39534
G1 X98.214 Y114.995 E2.42739
G1 X97.915 Y115.292 E2.47225
G1 X97.554 Y115.428 E2.5133
G1 X97.378 Y115.432 E2.53204
G1 X97.312 Y115.828 E2.57477
G1 X97.163 Y116.149 E2.61244
G1 X97.137 Y116.301 E2.62885
G1 X97.239 Y116.63 E2.66551
G1 X97.333 Y117.137 E2.72039
G1 X97.565 Y117.559 E2.77164
G1 X97.709 Y117.66 E2.79037
G1 X98.062 Y118.019 E2.84395
G1 X98.25 Y118.207 E2.87225
G1 X98.355 Y118.355 E2.89156
G1 X98.52 Y118.406 E2.90994
G1 X98.937 Y118.605 E2.95912
G1 X99.179 Y118.787 E2.99135
G1 X99.302 Y118.925 E3.01102
G1 X99.565 Y119.01 E3.04044
G1 X99.886 Y119.227 E3.08168
G1 X100.016 Y119.38 E3.10305
G1 X100.117 Y119.397 E3.11395
G1 X100.618 Y119.568 E3.17029
G1 X101.032 Y119.553 E3.21438
G1 X101.434 Y119.666 E3.25883
G1 X101.752 Y119.852 E3.29804
G1 X102.173 Y119.889 E3.34302
G1 X102.608 Y119.89 E3.38932
G1 X103.243 Y120.001 E3.45793
G1 X103.563 Y120.145 E3.49527
G1 X103.851 Y120.371 E3.53424
G1 X104.096 Y120.366 E3.56032
G1 X104.356 Y120.41 E3.58839
G1 X104.595 Y120.507 E3.61584
G1 X104.871 Y120.711 E3.65237
G1 X104.977 Y120.815 E3.66817
G1 X105.169 Y120.869 E3.6894
G0 F6000 X106.245 Y122.857
G0 X106.659 Y123.565
G0 X107.503 Y124.919
G0 X108.103 Y125.774
G0 X109.286 Y127.36
G1 F1233.9 X109.516 Y127.43 E3.71428
G1 F1022.4 X109.685 Y127.385 E3.73613
G1 F796 X110.073 Y127.137 E3.81002
G1 F813.6 X109.907 Y126.923 E3.85253
G1 F1051.5 X109.697 Y126.683 E3.89127
G1 F1121.5 X109.401 Y126.648 E3.92521
G1 F1027.8 X109.358 Y126.635 E3.9308
G1 F909.1 X108.902 Y126.65 E3.99489
G1 X109.145 Y127.009 E4.0558
G1 F1121.5 X109.286 Y127.36 E4.09888
G1 F2700 E-0.90112
G0 F6000 X111.625 Y127.456
G0 X111.857 Y127.718
G1 F2700 E4.09888
G0 F6000 X111.975 Y128.22
;TYPE:WALL-OUTER
G1 F1200 X112.625 Y127.709 E4.18688
G1 F1203 X112.912 Y127.514 E4.22371
G1 F1207.5 X112.97 Y127.337 E4.24341
G1 F1221.4 X113.089 Y127.212 E4.26146
G1 F1201.5 X113.375 Y127.118 E4.29346
G1 F1159.4 X113.658 Y127.183 E4.32545
G1 F1147 X113.856 Y127.148 E4.34784
G1 X114.043 Y126.97 E4.37659
G1 X114.493 Y126.835 E4.4289
G1 F1207.5 X114.526 Y126.872 E4.43415
G1 F1273.2 X114.831 Y126.929 E4.46527
G1 X114.91 Y126.986 E4.47504
G1 F1271.5 X115.421 Y126.867 E4.52775
G1 F1268.2 X115.471 Y126.787 E4.53725
G1 F1302.6 X115.58 Y126.727 E4.54945
G1 F1352.1 X115.858 Y126.705 E4.57579
G1 F1363.6 X116.014 Y126.804 E4.59309
G1 X116.168 Y126.762 E4.60804
G1 X116.345 Y126.462 E4.64067
G1 X116.744 Y126.195 E4.68563
G1 X116.61 Y126.063 E4.70325
G1 X116.518 Y125.9 E4.72078
G1 X116.226 Y126 E4.74969
G1 X115.944 Y126.017 E4.77615
G1 F1383.3 X115.694 Y126.019 E4.79923
G1 F1371.4 X115.338 Y126.058 E4.83258
G1 F1302.6 X115.066 Y126.174 E4.86158
G1 F1268.2 X114.939 Y126.2 E4.87463
G1 F1271.5 X114.623 Y126.316 E4.90845
G1 F1207.5 X114.454 Y126.375 E4.92738
G1 F1147 X114.059 Y126.374 E4.97136
G1 X113.909 Y126.33 E4.98877
G1 F1155.2 X113.382 Y126.29 E5.0472
G1 F1163.6 X113.293 Y126.328 E5.05782
G1 F1194 X112.917 Y126.441 E5.09982
G1 F1218.3 X112.378 Y126.419 E5.15637
G1 F1206 X112.123 Y126.267 E5.18781
G1 F1200 X112.054 Y126.281 E5.1953
G1 X111.74 Y126.175 E5.23058
G1 X111.35 Y126.201 E5.27218
G1 X111.214 Y126.183 E5.28678
G1 X110.879 Y126.194 E5.32245
G1 X110.754 Y126.156 E5.33636
G1 X110.474 Y126.151 E5.36616
G1 X110.298 Y126.081 E5.38632
G1 X110.176 Y125.971 E5.40381
G1 X110.092 Y125.991 E5.413
G1 X109.628 Y125.803 E5.46628
G1 X109.253 Y125.726 E5.50703
G1 X109.032 Y125.552 E5.53696
G1 X108.773 Y125.447 E5.56671
G1 X108.7 Y125.486 E5.57552
G1 X108.51 Y125.469 E5.59582
G1 F1188.1 X108.304 Y125.323 E5.62296
G1 F1072.6 X108.047 Y125.091 E5.66419
G1 F910.8 X107.774 Y124.836 E5.71657
G1 F845.8 X107.731 Y124.44 E5.77672
G1 F844.3 X107.597 Y124.297 E5.80636
G1 F860.2 X107.428 Y124.086 E5.8465
G1 F876.7 X107.404 Y124.09 E5.85005
G1 F961.9 X107.184 Y123.668 E5.91323
G1 F1117.6 X106.743 Y122.855 E6.01893
G1 F1126.8 X106.624 Y122.635 E6.04729
G1 F1041.2 X106.57 Y122.385 E6.07866
G1 F1003.1 X106.564 Y122.302 E6.08925
G1 F995.9 X106.283 Y121.694 E6.17516
G1 F1045.8 X106.29 Y121.401 E6.21095
G1 F1132.1 X106.281 Y120.412 E6.32253
G1 F1176.5 X106.163 Y120.153 E6.35343
G1 F1200 X106.154 Y119.954 E6.37463
G1 X106.231 Y119.762 E6.39665
G1 X106.156 Y119.313 E6.4451
G1 X106.199 Y118.503 E6.53143
G1 X106.432 Y117.773 E6.61299
G1 X106.627 Y117.566 E6.64326
G1 X106.445 Y117.109 E6.69561
G1 X106.432 Y116.952 E6.71238
G1 X106.501 Y116.768 E6.73329
G1 F1065.5 X107.087 Y116.169 E6.83374
G1 F926.6 X107.427 Y116.209 E6.88093
G1 F898 X107.544 Y116.001 E6.91487
G1 F940.3 X107.815 Y115.889 E6.9547
G1 F986.6 X107.869 Y115.782 E6.97021
G1 F1039 X108.074 Y115.663 E6.99935
G1 F1121.5 X108.389 Y115.587 E7.03625
G1 F1104.7 X108.526 Y115.446 E7.05898
G1 F1064.3 X108.689 Y115.406 E7.07912
G1 F1022.4 X108.733 Y114.985 E7.132
G1 F940.3 X108.802 Y114.737 E7.16697
G1 X108.555 Y114.809 E7.20192
G1 F1032.3 X108.249 Y114.772 E7.24005
G1 F1115 X108.102 Y114.8 E7.25719
G1 F1099.7 X107.765 Y114.842 E7.29664
G1 F1035.6 X107.385 Y115.013 E7.34803
G1 F953.3 X107.113 Y115.109 E7.38667
G1 F895.5 X106.894 Y115.127 E7.41801
G1 F956.2 X106.483 Y115.083 E7.47322
G1 F1051.5 X106.329 Y115.054 E7.49226
G1 F1073.8 X106.188 Y115.103 E7.51001
G1 F1133.4 X105.922 Y115.06 E7.54038
G1 F1200 X105.811 Y115.004 E7.55361
G1 X105.619 Y114.766 E7.58615
G1 X105.347 Y114.855 E7.61661
G1 X105.116 Y114.783 E7.64237
G1 X105.026 Y114.695 E7.65576
G1 X104.895 Y114.641 E7.67084
G1 X104.592 Y114.659 E7.70315
G1 X104.4 Y114.611 E7.72421
G1 X104.222 Y114.663 E7.74395
G1 X104.077 Y114.654 E7.75941
G1 X103.936 Y114.587 E7.77603
G1 X103.555 Y114.219 E7.83241
G1 X103.303 Y113.958 E7.87102
G1 X103.048 Y113.791 E7.90346
G1 X102.898 Y113.737 E7.92043
G1 X102.772 Y113.599 E7.94032
G1 X102.606 Y112.984 E8.00812
G1 X102.525 Y112.788 E8.03069
G1 X102.44 Y111.892 E8.12648
G1 X102.552 Y111.06 E8.21583
G1 X102.749 Y110.45 E8.28406
G1 X102.893 Y110.323 E8.30449
G1 X103.239 Y110.115 E8.34746
G1 X103.763 Y109.493 E8.43402
G1 X104.209 Y109.041 E8.50161
G1 X104.598 Y108.514 E8.57132
G1 X104.694 Y108.125 E8.61397
G1 X104.756 Y107.533 E8.67732
G1 X104.592 Y107.269 E8.7104
G1 X104.349 Y107.285 E8.73632
G1 X104.092 Y107.277 E8.76368
G1 X103.751 Y107.346 E8.80071
G1 X103.297 Y107.608 E8.8565
G1 X102.877 Y107.806 E8.90592
G1 X102.684 Y108.152 E8.94809
G1 X102.512 Y108.43 E8.98288
G1 X102.306 Y108.67 E9.01654
G1 X102.194 Y108.737 E9.03043
G1 X101.843 Y108.757 E9.06785
G1 X101.755 Y108.802 E9.07837
G1 X101.499 Y108.825 E9.10573
G1 X101.153 Y109.587 E9.1948
G1 X101.006 Y110.599 E9.30364
G1 X100.747 Y110.885 E9.34471
G1 X100.585 Y110.964 E9.36389
G1 X100.485 Y110.94 E9.37483
G1 X100.439 Y111.252 E9.4084
G1 X99.696 Y112.111 E9.52928
G1 X99.645 Y112.611 E9.58277
G1 X99.556 Y112.799 E9.60491
G1 X99.405 Y112.908 E9.62473
G1 X99.036 Y112.86 E9.66434
G1 X98.223 Y113.777 E9.79477
G1 X98.074 Y113.858 E9.81282
G1 X97.845 Y113.857 E9.83719
G1 X97.771 Y113.82 E9.846
G1 X97.724 Y113.92 E9.85776
G1 X97.648 Y114.39 E9.90843
G1 X97.504 Y114.583 E9.93406
G1 X97.36 Y114.652 E9.95106
G1 X97.182 Y114.656 E9.97001
G1 X96.917 Y114.602 E9.99879
G1 X96.639 Y114.919 E10.04367
G1 X96.543 Y115.635 E10.12055
G1 X96.407 Y115.822 E10.14516
G1 X96.33 Y116.274 E10.19396
G1 X96.379 Y116.558 E10.22464
G1 X96.465 Y116.832 E10.2552
G1 X96.568 Y117.407 E10.31738
G1 X96.968 Y118.134 E10.40569
G1 X97.185 Y118.265 E10.43267
G1 X97.509 Y118.599 E10.48219
G1 X97.615 Y118.694 E10.49734
G1 X97.885 Y119.106 E10.54977
G1 X98.202 Y119.137 E10.58367
G1 X98.579 Y119.318 E10.62818
G1 X98.872 Y119.655 E10.67571
G1 X99.163 Y119.713 E10.70729
G1 X99.36 Y119.833 E10.73184
G1 X99.558 Y120.14 E10.77072
G1 X99.888 Y120.162 E10.80592
G1 X100.496 Y120.374 E10.87446
G1 X101.043 Y120.353 E10.93272
G1 X101.514 Y120.646 E10.99176
G1 X101.866 Y120.657 E11.02924
G1 X102.127 Y120.689 E11.05722
G1 X102.539 Y120.686 E11.10108
G1 X103.095 Y120.788 E11.16124
G1 X103.446 Y121.075 E11.2095
G1 X103.76 Y121.189 E11.24505
G1 X104.065 Y121.166 E11.2776
G1 X104.25 Y121.222 E11.29818
G1 X104.576 Y121.544 E11.34695
G1 X104.895 Y121.621 E11.38187
G1 F1153.8 X105.123 Y121.767 E11.41184
G1 F1045.8 X105.429 Y122.151 E11.47181
G1 F991.7 X105.592 Y122.498 E11.52118
G1 F1010.5 X105.71 Y122.739 E11.5551
G1 F1092.2 X106.073 Y123.33 E11.6362
G1 F1098.4 X106.413 Y124.14 E11.73835
G1 F930.2 X106.621 Y124.776 E11.83022
G1 F845.1 X106.664 Y125.043 E11.8711
G1 F847.3 X106.763 Y125.306 E11.91345
G1 F912.5 X106.842 Y125.729 E11.97368
G1 F985.6 X106.867 Y125.787 E11.98186
G1 F1082.3 X106.959 Y126.184 E12.02996
G1 F1200 X107.195 Y126.563 E12.07747
G1 X107.582 Y127.033 E12.14227
G1 X107.798 Y127.266 E12.17609
G1 X108.158 Y127.446 E12.21893
G1 X108.397 Y127.501 E12.24503
G1 X108.512 Y127.597 E12.26097
G1 X108.755 Y128.019 E12.3128
G1 X109.07 Y128.121 E12.34804
G1 X109.167 Y128.191 E12.36077
G1 X109.689 Y128.239 E12.41657
G1 X110.044 Y128.193 E12.45466
G1 X110.288 Y128.248 E12.48129
G1 X110.713 Y128.172 E12.52724
G1 X110.887 Y128.095 E12.54749
G1 X111.232 Y128.005 E12.58544
G1 X111.437 Y128.034 E12.60747
G1 X111.578 Y128.132 E12.62575
G1 X111.685 Y128.282 E12.64536
G1 X111.975 Y128.22 E12.67692
G0 F6000 X111.857 Y127.718
G0 X111.798 Y127.177
;TYPE:WALL-INNER
G1 F914.3 X111.573 Y127.104 E12.70997
G1 F929.3 X111.122 Y127.099 E12.77195
G1 F871.1 X110.608 Y127.145 E12.84761
G1 F779.9 X110.329 Y127.182 E12.8937
G1 F739.6 X110.073 Y127.137 E12.93859
G0 F6000 X108.902 Y126.65
G1 F804 X108.578 Y126.494 E12.99571
G1 F799.3 X108.451 Y126.474 E13.01625
G1 F856.4 X108.211 Y126.344 E13.05696
G1 F993.8 X107.88 Y126.072 E13.11202
G1 F1136.1 X107.672 Y125.806 E13.14998
G0 F6000 X106.44 Y123.12
G0 X104.996 Y119.268
G0 X105.508 Y116.153
G0 X102.767 Y114.967
G0 X101.23 Y112.24
G0 X101.755 Y110.883
G1 F1147 X101.842 Y110.586 E13.18444
G1 F1104.7 X101.912 Y110.279 E13.22085
G1 F982.6 X102.053 Y109.849 E13.27967
G1 F888.9 X102.142 Y109.711 E13.30326
G1 F908.2 X102.636 Y109.488 E13.37948
G1 F1031.1 X102.882 Y109.268 E13.42035
G1 F1126.8 X103.197 Y108.89 E13.47613
G1 F1053.8 X103.512 Y108.487 E13.53812
G0 F6000 X102.399 Y110.11
G0 X102.122 Y110.959
G0 X101.999 Y111.88
G0 X102.097 Y112.916
G0 X102.601 Y114.595
G0 X105.508 Y116.153
G0 X105.005 Y120.337
G0 X103.127 Y119.672
G0 X104.206 Y119.652
;TYPE:SKIN
G1 F1200 X104.655 Y119.735 E13.58672
G1 X104.669 Y119.632 E13.59778
G1 X104.632 Y119.328 E13.63038
G1 X104.691 Y118.229 E13.74752
G1 X104.956 Y117.392 E13.84096
G1 X104.919 Y117.191 E13.86271
G1 X104.92 Y116.665 E13.91869
G1 X105.029 Y116.344 E13.95477
G1 X104.788 Y116.293 E13.98099
G1 X104.483 Y116.164 E14.01624
G1 X104.106 Y116.187 E14.05644
G1 X103.679 Y116.122 E14.10241
G1 X103.261 Y115.955 E14.15032
G1 X102.94 Y115.746 E14.19108
G1 X102.473 Y115.29 E14.26055
G1 X102.342 Y115.153 E14.28073
G1 X101.982 Y114.95 E14.32472
G1 X101.711 Y114.705 E14.3636
G1 X101.487 Y114.408 E14.40319
G1 X101.279 Y113.908 E14.46083
G1 X101.175 Y113.517 E14.50389
G1 X101.052 Y113.365 E14.5247
G1 X100.895 Y113.527 E14.54871
G1 X100.715 Y113.781 E14.58185
G1 X100.309 Y114.145 E14.63988
G1 X100.003 Y114.304 E14.67658
G1 X99.771 Y114.327 E14.7014
G1 X99.268 Y114.895 E14.78215
G1 X98.982 Y115.098 E14.81948
G1 X98.881 Y115.297 E14.84323
G1 X98.553 Y115.714 E14.8997
G1 X98.137 Y115.975 E14.95196
G1 X98.004 Y116.026 E14.96712
G1 X97.892 Y116.3 E14.99863
G1 X97.942 Y116.469 E15.01739
G1 X98.02 Y116.889 E15.06285
G1 X98.185 Y117.12 E15.09307
G1 X98.561 Y117.497 E15.14974
G1 X98.777 Y117.726 E15.18324
G1 X99.32 Y117.994 E15.24769
G1 X99.629 Y118.221 E15.2885
G1 X99.702 Y118.295 E15.29956
G1 X100.022 Y118.417 E15.33601
G1 X100.44 Y118.746 E15.39263
G1 X100.727 Y118.845 E15.42494
G1 X101.036 Y118.84 E15.45783
G1 X101.486 Y118.913 E15.50635
G1 X101.834 Y119.06 E15.54656
G1 X102.018 Y119.169 E15.56932
G1 X102.681 Y119.17 E15.63989
G1 X103.445 Y119.304 E15.72244
G1 X103.903 Y119.512 E15.77598
G1 X104.102 Y119.649 E15.80169
G1 X104.206 Y119.652 E15.81277
G0 F6000 X103.127 Y119.672
G0 X105.005 Y120.337
G0 X105.346 Y117.541
G0 X104.52 Y116.966
G1 F1200 X104.129 Y116.575 E15.87162
G0 F6000 X105.346 Y117.541
G0 X105.221 Y117.938
G0 X104.364 Y117.94
G1 F1200 X100.73 Y114.306 E16.4186
G0 F6000 X99.988 Y114.696
G1 F1200 X104.25 Y118.958 E17.06011
G0 F6000 X103.127 Y119.672
G0 X102.814 Y119.617
G0 X102.971 Y118.81
G1 F1200 X99.43 Y115.269 E17.5931
G0 F6000 X98.924 Y115.894
G1 F1200 X101.545 Y118.516 E17.98768
G0 F6000 X101.774 Y119.511
G0 X100.372 Y119.096
G0 X98.918 Y118.259
G0 X99.6 Y117.702
G1 F1200 X98.34 Y116.442 E18.17733
G1 F2700 E13.17733
;MESH:NONMESH
G0 F300 X98.34 Y116.442 Z0.64
G0 F6000 X97.562 Y116.719
G0 X97.512 Y116.282
G0 X97.698 Y115.765
G0 X98.472 Y115.092
G0 X104.123 Y107.696
G0 X104.356 Y106.219
G0 X107.335 Y101.898
;TIME_ELAPSED:18.347419
;LAYER:1
M106 S127.5
;TYPE:WALL-OUTER
;MESH:stanford_bunny.gltf
G1 F2700 E18.17733
G1 F1594.7 X107.261 Y101.898 E18.18326
G1 X107.223 Y101.962 E18.18922
G1 X107.261 Y102.026 E18.19518
G1 X107.335 Y102.026 E18.20111
G1 X107.373 Y101.962 E18.20707
G1 F2700 E13.20707
G0 F7500 X108.397 Y102.819
G0 X110.579 Y107.786
G0 X110.858 Y108.754
G0 X110.934 Y109.485
G0 X110.861 Y111.276
G0 X109.114 Y114.85
G0 X108.766 Y114.944
G0 X107.07 Y117.633
G0 X106.651 Y119.247
G0 X106.908 Y120.972
G0 X107.444 Y122.545
G0 X107.744 Y123.17
G0 X110.012 Y126.329
G0 X110.753 Y126.644
