;FLAVOR:Marlin
;TIME:5360
;Filament used: 9.11168m
;Layer height: 0.32
;MINX:77.323
;MINY:93.259
;MINZ:0.32
;MAXX:157.46
;MAXY:142.819
;MAXZ:56.96
M140 S40
M105
M190 S40
M104 S200
M105
M109 S200
M82 ;absolute extrusion mode
G92 E0 ; Reset Extruder
G28 ; Home all axes
G1 Z2.0 F3000 ; Move Z Axis up little to prevent scratching of Heat Bed
G1 X0.1 Y20 Z0.3 F5000.0 ; Move to start position
G1 X0.1 Y200.0 Z0.3 F1500.0 E15 ; Draw the first line
G1 X0.4 Y200.0 Z0.3 F5000.0 ; Move to side a little
G1 X0.4 Y20 Z0.3 F1500.0 E30 ; Draw the second line
G92 E0 ; Reset Extruder
G1 Z2.0 F3000 ; Move Z Axis up little to prevent scratching of Heat Bed
G1 X5 Y20 Z0.3 F5000.0 ; Move over to prevent blob squish
G92 E0
G92 E0
G1 F2700 E-5
;LAYER_COUNT:178
;LAYER:0
M107
G0 F6000 X117.5 Y102.321 Z0.32
;TYPE:WALL-OUTER
G1 F2700 E0
G1 F466.5 X117.891 Y101.862 E0.08254
G1 X118.42 Y101.243 E0.19401
G1 X117.5 Y100.994 E0.32449
G1 X116.58 Y101.243 E0.45497
G1 X117.5 Y102.321 E0.64899
;MESH:NONMESH
G0 F300 X117.5 Y102.321 Z0.64
G0 F6000 X117.5 Y101.781
G0 X116.519 Y103.078
;TIME_ELAPSED:5.262737
;LAYER:1
M106 S127.5
;TYPE:WALL-INNER
;MESH:ape.stl
G1 F600 X117.255 Y103.025 E0.72752
G1 X117.747 Y103.025 E0.77989
G1 X118.482 Y103.079 E0.85833
G1 X120.124 Y101.899 E1.07353
G1 X117.5 Y101.189 E1.36286
G1 X114.874 Y101.898 E1.65235
G1 X116.519 Y103.078 E1.86782
G0 F7500 X116.287 Y103.896
;TYPE:WALL-OUTER
G1 F600 X117.365 Y103.819 E1.98285
G1 X117.5 Y103.855 E1.99772
G1 X117.635 Y103.819 E2.01259
G1 X118.714 Y103.897 E2.12773
G1 X121.958 Y101.566 E2.55289
G1 X117.499 Y100.361 E3.0445
G1 X113.04 Y101.565 E3.53607
G1 X116.287 Y103.896 E3.96149
G0 F7500 X117.143 Y102.732
G0 X116.625 Y102.707
G0 X115.752 Y102.057
G0 X117.325 Y101.614
G0 X117.794 Y101.581
G0 X117.645 Y102.124
;TYPE:SKIN
G1 F413.8 X117.572 Y102.249 E3.98383
G1 X117.428 Y102.249 E4.00605
G1 X117.355 Y102.124 E4.02839
G1 X117.428 Y101.999 E4.05073
G1 X117.572 Y101.999 E4.07296
;MESH:NONMESH
G0 F300 X117.572 Y101.999 Z0.96
G0 F7500 X117.695 Y101.554
G0 X116.637 Y101.795
G0 X115.752 Y102.057
G0 X115.348 Y102.608
G0 X114.838 Y103.318
;TIME_ELAPSED:9.236161
;LAYER:2
M106 S255
;TYPE:WALL-INNER
;MESH:ape.stl
G1 F600 X117.049 Y103.162 E4.30886
G1 X117.315 Y103.173 E4.3372
G1 X117.5 Y103.22 E4.35751
G1 X117.685 Y103.173 E4.37783
G1 X117.951 Y103.162 E4.40617
G1 X120.162 Y103.319 E4.64208
G1 X121.849 Y102.106 E4.86323
G1 X122.265 Y101.889 E4.91316
G1 X122.175 Y101.845 E4.92383
G1 X119.783 Y101.295 E5.18506
G1 X117.5 Y100.679 E5.43673
G1 X115.215 Y101.296 E5.68864
G1 X112.833 Y101.842 E5.94874
G1 X112.736 Y101.89 E5.96026
G1 X113.157 Y102.11 E6.01081
G1 X114.838 Y103.318 E6.23113
G0 F9000 X114.606 Y104.136
;TYPE:WALL-OUTER
G1 F600 X117.171 Y103.955 E6.50481
G1 X117.5 Y104.074 E6.54205
G1 X117.829 Y103.955 E6.57928
G1 X120.394 Y104.137 E6.85297
G1 X122.296 Y102.775 E7.10195
G1 X124.027 Y101.868 E7.30995
G1 X122.529 Y101.127 E7.48782
G1 X122.44 Y101.083 E7.49839
G1 X119.947 Y100.511 E7.77062
G1 X117.5 Y99.851 E8.04037
G1 X115.036 Y100.516 E8.312
G1 X112.563 Y101.083 E8.58204
G1 X110.974 Y101.868 E8.77067
G1 X112.753 Y102.805 E8.98467
G1 X114.606 Y104.136 E9.22749
G0 F9000 X114.749 Y103.631
G0 X120.056 Y102.948
G0 X121.293 Y102.035
G0 X119.972 Y101.646
G0 X119.821 Y102.312
;TYPE:SKIN
G1 F390.2 X119.584 Y102.163 E9.2733
G1 F463.3 X119.356 Y101.997 E9.31218
G1 F576.9 X119.128 Y101.831 E9.34339
G1 F611.5 X118.05 Y101.596 E9.45862
G1 F566.7 X117.499 Y101.494 E9.52176
G1 F570.7 X116.859 Y101.614 E9.59462
G1 F613.8 X115.875 Y101.83 E9.69943
G1 F575.5 X115.647 Y101.996 E9.73072
G1 F463.3 X115.418 Y102.163 E9.76979
G1 F390.2 X115.182 Y102.311 E9.81537
G1 F391.8 X115.467 Y102.389 E9.86353
G1 F466.9 X115.731 Y102.469 E9.90126
G1 F576.9 X115.996 Y102.549 E9.9319
G1 F609.9 X117.043 Y102.423 E10.04231
G1 F547.9 X117.569 Y102.406 E10.10365
G1 X117.958 Y102.423 E10.14902
G1 F611.5 X119.007 Y102.549 E10.25937
G1 F576.9 X119.279 Y102.467 E10.29081
G1 F463.3 X119.551 Y102.385 E10.32997
G1 F390.2 X119.821 Y102.312 E10.37574
;MESH:NONMESH
G0 F300 X119.821 Y102.312 Z1.28
G0 F9000 X119.972 Y101.646
G0 X117.5 Y101.054
G0 X113.709 Y102.036
G0 X113.625 Y102.817
G0 X113.09 Y103.561
;TIME_ELAPSED:16.153221
;LAYER:3
;TYPE:WALL-INNER
;MESH:ape.stl
G1 F600 X116.844 Y103.299 E10.77626
G1 X117.207 Y103.324 E10.81498
G1 X117.5 Y103.432 E10.84822
G1 X117.792 Y103.325 E10.88132
G1 X118.137 Y103.298 E10.91815
G1 X121.908 Y103.563 E11.3205
G1 X124.29 Y102.315 E11.60671
G1 X122.164 Y101.264 E11.85912
G1 X122.038 Y101.202 E11.87407
G1 X117.5 Y100.154 E12.36977
G1 X112.962 Y101.201 E12.86545
G1 X110.71 Y102.315 E13.13286
G1 X113.09 Y103.561 E13.41878
G0 F9000 X112.92 Y104.375
;TYPE:WALL-OUTER
G1 F600 X116.976 Y104.092 E13.85152
G1 X117.5 Y104.293 E13.91125
G1 X118.024 Y104.092 E13.97099
G1 X122.079 Y104.377 E14.40363
G1 X126.052 Y102.294 E14.88108
G1 X122.518 Y100.546 E15.30071
G1 X122.309 Y100.443 E15.32551
G1 X117.5 Y99.333 E15.8508
G1 X112.691 Y100.443 E16.37609
G1 X108.948 Y102.294 E16.82052
G1 X112.92 Y104.375 E17.29778
G0 F9000 X113.103 Y103.228
G0 X113.265 Y102.793
;TYPE:SKIN
G1 F463.8 X114.436 Y102.665 E17.45998
G1 F444.9 X115.607 Y102.537 E17.62908
G1 F427.4 X116.778 Y102.408 E17.80509
G1 F432.8 X116.855 Y102.444 E17.81763
G1 F492.3 X117.274 Y102.57 E17.87439
G1 F572.1 X117.498 Y102.669 E17.90172
G1 F573.5 X117.721 Y102.573 E17.92876
G1 F494.3 X118.116 Y102.446 E17.98236
G1 F433.6 X118.199 Y102.405 E17.99599
G1 F426.7 X119.377 Y102.534 E18.17336
G1 F444.4 X120.556 Y102.663 E18.34377
G1 F463.8 X121.735 Y102.793 E18.5071
G1 F507.4 X122.615 Y102.336 E18.6319
G1 F546.1 X121.781 Y101.923 E18.74073
G1 F530.4 X121.099 Y101.793 E18.82432
G1 F500.5 X120.416 Y101.663 E18.91303
G1 F473.8 X119.733 Y101.533 E19.00673
G1 F449.9 X119.05 Y101.403 E19.10542
G1 F428.2 X118.368 Y101.273 E19.20897
G1 F452.4 X118.03 Y101.106 E19.26218
G1 F541.1 X117.692 Y100.939 E19.30667
G1 F600 X117.5 Y100.894 E19.32766
G1 X117.307 Y100.939 E19.34876
G1 F541.8 X116.958 Y101.108 E19.39446
G1 F453.3 X116.609 Y101.277 E19.44909
G1 F429 X115.932 Y101.406 E19.55169
G1 F450.3 X115.254 Y101.535 E19.64957
G1 F473.8 X114.576 Y101.664 E19.74259
G1 F500.5 X113.898 Y101.793 E19.83064
G1 F529.8 X113.22 Y101.923 E19.91385
G1 F545.5 X112.387 Y102.335 E20.02265
G1 X113.145 Y102.729 E20.12267
G1 F507.4 X113.265 Y102.793 E20.13979
G0 F9000 X113.294 Y103.247
G0 X116.729 Y103.006
G0 X117.329 Y102.156
G1 F600 X117.912 Y101.573 E20.22754
;MESH:NONMESH
G0 F300 X117.912 Y101.573 Z1.6
G0 F9000 X118.133 Y100.609
G0 X117.5 Y100.525
G0 X112.976 Y101.597
G0 X111.552 Y102.325
G0 X111.97 Y102.635
G0 X111.302 Y103.913
;TIME_ELAPSED:26.372653
;LAYER:4
;TYPE:WALL-INNER
;MESH:ape.stl
G1 F753 X112.421 Y103.673 E20.34935
G1 X112.747 Y103.678 E20.38405
G1 X112.868 Y103.701 E20.39716
G1 X116.638 Y103.437 E20.79939
G1 X117.03 Y103.469 E20.84125
G1 X117.502 Y103.652 E20.89513
G1 X117.967 Y103.472 E20.9482
G1 X118.274 Y103.432 E20.98115
G1 X122.136 Y103.701 E21.39319
G1 X122.257 Y103.678 E21.4063
G1 X122.576 Y103.673 E21.44025
G1 X123.699 Y103.914 E21.5625
G1 X125.934 Y102.741 E21.83114
G1 X125.937 Y102.724 E21.83298
G1 X125.94 Y102.707 E21.83482
G1 X125.428 Y102.241 E21.9085
G1 X123.259 Y101.228 E22.16329
G1 X121.91 Y100.561 E22.32346
G1 X120.504 Y100.238 E22.477
G1 X117.718 Y99.835 E22.77661
G1 X117.282 Y99.835 E22.82301
G1 X114.495 Y100.239 E23.12274
G1 X113.09 Y100.561 E23.27616
G1 X111.715 Y101.241 E23.43942
G1 X109.573 Y102.24 E23.69097
G1 X109.059 Y102.706 E23.76482
G1 X109.065 Y102.742 E23.7687
G1 X111.302 Y103.913 E24.03744
G0 F9000 X111.188 Y104.756
;TYPE:WALL-OUTER
G1 F753 X112.536 Y104.469 E24.18412
G1 X112.81 Y104.507 E24.21357
G1 X116.774 Y104.229 E24.6365
G1 X117.501 Y104.512 E24.71953
G1 X118.221 Y104.233 E24.80172
G1 X122.192 Y104.507 E25.22536
G1 X122.475 Y104.47 E25.25574
G1 X123.813 Y104.757 E25.40139
G1 X126.656 Y103.267 E25.74301
G1 X126.726 Y102.86 E25.78697
G1 X126.804 Y102.409 E25.83568
G1 X125.876 Y101.567 E25.96905
G1 X123.614 Y100.511 E26.23474
G1 X122.18 Y99.802 E26.405
G1 X120.651 Y99.451 E26.57197
G1 X117.776 Y99.035 E26.88115
G1 X117.224 Y99.035 E26.9399
G1 X114.348 Y99.452 E27.2492
G1 X112.82 Y99.802 E27.41604
G1 X111.377 Y100.516 E27.58739
G1 X109.125 Y101.566 E27.85185
G1 X108.195 Y102.408 E27.98537
G1 X108.343 Y103.268 E28.07825
G1 X111.188 Y104.756 E28.41997
G0 F9000 X111.281 Y103.562
G0 X111.407 Y103.153
;TYPE:SKIN
G1 F753 X112.352 Y102.954 E28.52275
G1 X112.798 Y102.962 E28.57023
G1 X112.912 Y102.977 E28.58247
G1 X116.58 Y102.718 E28.97383
G1 X117.195 Y102.765 E29.03948
G1 X117.5 Y102.879 E29.07413
G1 X117.807 Y102.766 E29.10895
G1 X118.262 Y102.711 E29.15773
G1 X122.093 Y102.976 E29.56645
G1 X122.158 Y102.965 E29.57346
G1 X122.668 Y102.957 E29.62775
G1 X123.594 Y103.153 E29.72849
G1 X124.576 Y102.64 E29.84641
G1 X122.97 Y101.889 E30.03511
G1 X121.667 Y101.245 E30.1898
G1 X120.37 Y100.947 E30.33144
G1 X117.663 Y100.556 E30.62254
G1 X117.336 Y100.555 E30.65735
G1 X114.627 Y100.948 E30.94869
G1 X113.335 Y101.245 E31.08979
G1 X112.053 Y101.879 E31.24201
G1 X110.425 Y102.639 E31.43323
G1 X111.407 Y103.153 E31.5512
G0 F9000 X111.588 Y102.537
G1 F753 X111.726 Y102.675 E31.57197
G0 F9000 X112.357 Y102.174
G1 F753 X112.743 Y102.56 E31.63007
G0 F9000 X113.114 Y101.8
G1 F753 X113.825 Y102.511 E31.73709
G0 F9000 X113.882 Y103.33
G0 X111.355 Y103.531
G0 X109.69 Y102.641
G0 X113.354 Y100.87
G0 X113.774 Y100.712
G0 X113.957 Y101.512
G1 F753 X114.881 Y102.436 E31.87617
G0 F9000 X114.938 Y103.256
G0 X115.996 Y103.181
G0 X115.938 Y102.362
G1 F753 X114.892 Y101.315 E32.03369
G0 F9000 X115.879 Y101.171
G1 F753 X117.059 Y102.351 E32.2113
G0 F9000 X117.313 Y103.254
G0 X118.467 Y103.143
G0 X118.16 Y102.321
G1 F753 X116.867 Y101.027 E32.40599
G0 F9000 X116.75 Y100.216
G0 X117.282 Y100.205
G0 X118.614 Y100.269
G0 X117.977 Y101.007
G1 F753 X119.357 Y102.386 E32.61363
G0 F9000 X119.301 Y103.201
G0 X123.646 Y103.531
G0 X125.311 Y102.642
G0 X121.647 Y100.871
G0 X119.417 Y100.385
G0 X119.299 Y101.197
G1 F753 X120.571 Y102.469 E32.80509
G0 F9000 X120.515 Y103.285
G0 X123.646 Y103.531
G0 X125.311 Y102.642
G0 X121.647 Y100.871
G0 X120.841 Y100.625
G0 X120.657 Y101.424
G1 F753 X121.786 Y102.553 E32.97503
G0 F9000 X122.436 Y102.071
G1 F753 X122.98 Y102.615 E33.05691
;MESH:NONMESH
G0 F300 X122.98 Y102.615 Z1.92
G0 F9000 X123.148 Y103.487
G0 X111.355 Y103.531
G0 X109.69 Y102.641
G0 X109.065 Y104.022
;TIME_ELAPSED:39.388103
;LAYER:5
;TYPE:WALL-INNER
;MESH:ape.stl
G1 F844.1 X109.621 Y104.313 E33.1237
G1 X112.156 Y103.768 E33.39967
G1 X112.586 Y103.754 E33.44546
G1 X112.907 Y103.822 E33.48038
G1 X116.433 Y103.574 E33.85659
G1 X116.789 Y103.592 E33.89453
G1 X117.501 Y103.87 E33.97588
G1 X118.144 Y103.621 E34.04927
G1 X118.485 Y103.569 E34.08598
G1 X122.095 Y103.821 E34.47114
G1 X122.415 Y103.754 E34.50594
G1 X122.846 Y103.768 E34.55183
G1 X125.38 Y104.313 E34.8277
G1 X125.935 Y104.022 E34.8944
G1 X126.17 Y102.661 E35.04139
G1 X124.465 Y101.119 E35.28607
G1 X122.684 Y100.288 E35.49524
G1 X121.972 Y100.17 E35.57206
G1 X121.618 Y100.072 E35.61115
G1 X118.049 Y99.557 E35.99494
G1 X117.886 Y99.56 E36.01229
G1 X117.501 Y99.567 E36.05328
G1 X116.951 Y99.557 E36.11183
G1 X113.379 Y100.073 E36.49595
G1 X113.027 Y100.169 E36.53478
G1 X112.316 Y100.288 E36.61151
G1 X110.533 Y101.12 E36.82092
G1 X108.83 Y102.661 E37.06536
G1 X109.065 Y104.022 E37.21236
G0 F9000 X108.343 Y104.548
;TYPE:WALL-OUTER
G1 F844.1 X109.507 Y105.156 E37.35213
G1 X112.324 Y104.55 E37.65881
G1 X112.468 Y104.546 E37.67414
G1 X112.849 Y104.628 E37.71562
G1 X116.581 Y104.366 E38.11381
G1 X117.501 Y104.73 E38.21911
G1 X118.426 Y104.367 E38.32487
G1 X122.152 Y104.627 E38.7224
G1 X122.597 Y104.532 E38.77083
G1 X125.494 Y105.157 E39.08626
G1 X126.657 Y104.548 E39.22598
G1 X127.034 Y102.363 E39.46197
G1 X124.913 Y100.445 E39.76633
G1 X122.923 Y99.517 E40.00003
G1 X122.104 Y99.38 E40.08841
G1 X121.792 Y99.289 E40.123
G1 X118.099 Y98.756 E40.52013
G1 X117.872 Y98.76 E40.54429
G1 X117.501 Y98.767 E40.58378
G1 X116.901 Y98.755 E40.64766
G1 X113.206 Y99.29 E41.04502
G1 X112.925 Y99.374 E41.07624
G1 X112.076 Y99.517 E41.16787
G1 X110.086 Y100.446 E41.40162
G1 X107.966 Y102.363 E41.70582
G1 X108.343 Y104.548 E41.94181
G0 F9000 X109.417 Y103.867
G0 X109.715 Y103.554
;TYPE:SKIN
G1 F844.1 X112.031 Y103.058 E42.1939
G1 X112.673 Y103.038 E42.26226
G1 X112.958 Y103.097 E42.29324
G1 X116.138 Y102.872 E42.63254
G1 X116.064 Y102.691 E42.65335
G1 X115.738 Y102.422 E42.69834
G1 X115.578 Y102.027 E42.74369
G1 F829.6 X115.651 Y101.835 E42.76594
G1 F768.2 X115.826 Y101.602 E42.80002
G1 F710.1 X117.347 Y101.243 E42.99774
G1 F694 X117.665 Y101.244 E43.03891
G1 F674.6 X119.16 Y101.599 E43.24354
G1 F726.9 X119.348 Y101.836 E43.28093
G1 F829.6 X119.421 Y102.027 E43.30307
G1 F844.1 X119.261 Y102.421 E43.34833
G1 X118.973 Y102.63 E43.38621
G1 X118.862 Y102.876 E43.41493
G1 X122.045 Y103.096 E43.75451
G1 X122.332 Y103.038 E43.78568
G1 X122.978 Y103.058 E43.85446
G1 X125.284 Y103.554 E44.10551
G1 X125.354 Y103.145 E44.14967
G1 X125.391 Y102.93 E44.17289
G1 X124.065 Y101.728 E44.36338
G1 X122.468 Y100.984 E44.55089
G1 X121.834 Y100.875 E44.61936
G1 X121.457 Y100.777 E44.66082
G1 X120.734 Y100.673 E44.73856
G1 F829.6 X120.056 Y100.589 E44.81254
G1 F726.9 X119.368 Y100.593 E44.89758
G1 F682.8 X117.995 Y100.353 E45.08097
G1 F727.7 X117.376 Y100.337 E45.15742
G1 F726.9 X117.004 Y100.353 E45.20344
G1 F682.8 X115.634 Y100.592 E45.38642
G1 F726.9 X114.945 Y100.589 E45.47158
G1 F829.6 X114.266 Y100.674 E45.54569
G1 F844.1 X113.534 Y100.779 E45.62439
G1 X113.29 Y100.851 E45.65147
G1 X112.532 Y100.984 E45.73338
G1 X110.934 Y101.728 E45.92099
G1 X109.606 Y102.929 E46.11156
G1 X109.715 Y103.554 E46.17908
G0 F9000 X109.525 Y103.924
G0 X110.877 Y103.736
G0 X110.947 Y102.881
G1 F844.1 X112.292 Y101.536 E46.38153
G0 F9000 X111.946 Y100.792
G0 X110.735 Y101.424
G0 X109.224 Y102.797
G0 X109.393 Y103.782
G0 X109.619 Y103.901
G0 X112.81 Y103.493
G0 X112.311 Y102.648
G1 F844.1 X113.818 Y101.141 E46.60836
G0 F9000 X113.701 Y100.33
G0 X114.958 Y100.148
G0 X115.081 Y101.01
G1 F844.1 X113.429 Y102.662 E46.85702
G0 F9000 X113.479 Y103.481
G0 X116.192 Y103.219
G0 X116.258 Y102.953
G0 X116.87 Y102.332
G0 X115.764 Y102.219
G0 X114.646 Y102.577
G1 F844.1 X115.206 Y102.016 E46.94138
G0 F9000 X115.502 Y102.005
G0 X119.185 Y101.912
G0 X119.392 Y101.225
G1 F844.1 X119.554 Y101.063 E46.96577
G0 F9000 X119.807 Y101.94
G1 F844.1 X120.679 Y101.069 E47.09694
G0 F9000 X121.642 Y101.237
G1 F844.1 X120.305 Y102.575 E47.29826
G0 F9000 X119.277 Y102.25
G0 X119.518 Y102.015
G0 X121.362 Y102.648
G1 F844.1 X122.549 Y101.462 E47.47685
G0 F9000 X123.32 Y101.822
G1 F844.1 X122.499 Y102.642 E47.60035
G0 F9000 X123.022 Y103.497
G0 X123.339 Y103.565
G0 X123.51 Y102.763
G1 F844.1 X124.034 Y102.239 E47.67922
G0 F9000 X124.628 Y102.777
G1 F844.1 X124.441 Y102.963 E47.70729
;MESH:NONMESH
G0 F300 X124.441 Y102.963 Z2.24
G0 F9000 X124.267 Y103.765
G0 X109.673 Y103.93
G0 X109.417 Y103.867
G0 X108.927 Y104.501
;TIME_ELAPSED:52.127920
;LAYER:6
;TYPE:WALL-INNER
;MESH:ape.stl
G1 F897.4 X112.12 Y103.814 E48.05491
G1 X112.488 Y103.843 E48.0942
G1 X112.946 Y103.941 E48.14405
G1 X116.39 Y103.699 E48.51151
G1 X116.697 Y103.772 E48.54509
G1 X117.501 Y104.088 E48.63704
G1 X118.302 Y103.774 E48.7286
G1 X118.689 Y103.706 E48.77042
G1 X122.056 Y103.941 E49.12965
G1 X122.671 Y103.81 E49.19658
G1 X123.018 Y103.844 E49.23369
G1 X126.076 Y104.501 E49.56658
G1 X126.287 Y103.265 E49.70004
G1 X126.4 Y102.614 E49.77036
G1 X123.758 Y100.227 E50.14933
G1 X121.736 Y99.89 E50.3675
G1 X120.927 Y99.647 E50.45741
G1 X118.368 Y99.277 E50.7326
G1 X117.501 Y99.292 E50.82489
G1 X116.631 Y99.277 E50.9175
G1 X114.072 Y99.647 E51.19269
G1 X113.279 Y99.883 E51.28075
G1 X111.242 Y100.227 E51.50062
G1 X108.601 Y102.614 E51.87951
G1 X108.927 Y104.501 E52.08332
G0 F9000 X109.14 Y103.969
G0 X108.657 Y104.9
G0 X108.281 Y105.459
;TYPE:WALL-OUTER
G1 F897.4 X112.234 Y104.607 E52.51371
G1 X112.889 Y104.747 E52.585
G1 X116.374 Y104.503 E52.95682
G1 X117.501 Y104.948 E53.08578
G1 X118.56 Y104.531 E53.20692
G1 X118.718 Y104.51 E53.22388
G1 X122.112 Y104.747 E53.586
